!!!!SEGMENT: pl-kk--kk-i-503--001_anonim--veni-sancte-spiritus.krn
!!!cenid: 18xx:1346
!!!COM: Anonim
!!!COM-rismID: pe30004985
!!!CDT:
!!!CNT:
!!!OTL: Veni sancte spiritus
!!!PDT:
!!!AGN: Sacred
!!!SMS-siglum: PL-Kk
!!!SMS-shelfmark: Kk.I.503
!!!SMS-shelfwork: 001 W
!!!SMS-variant:
!!!SMS-altvar:
!!!NIFC-rismSourceID: 1001137601
!!!NIFC-islandoraID: pl-kk:14689
!!!URL-pdf-islandora: https://repozytorium.nifc.pl/islandora/object/pl-kk%3A14689/datastream/PDF/view
!!!URL-scan: https://polish.musicsources.pl/pl/lokalizacje/galeria/rekopisy/6112 @EN{Scan on Polish Music Herritage in Open Access Website} @PL{Skany w portalu Dziedzictwo Muzyki Polskiej w otwartym dostępie}
!!!ONB-nifc: UWAGA: w zbiorze Veni Sancte Spiritus (001) i Veni Sancte Spiritus No. 2. (002)
!!!AIN: 1 alto 1 empty 1 organ 1 soprn 1 tenor
!!!key:
**kern	**text	**text	**kern	**kern	**text	**text	**kern	**text	**text	**kern	**text	**text	**kern	**text	**text
*part5	*part5	*part5	*part5	*part4	*part4	*part4	*part3	*part3	*part3	*part2	*part2	*part2	*part1	*part1	*part1
*staff6	*staff6	*staff6	*staff5	*staff4	*staff4	*staff4	*staff3	*staff3	*staff3	*staff2	*staff2	*staff2	*staff1	*staff1	*staff1
*Iorgan	*	*	*Iempty	*Iempty	*	*	*Itenor	*	*	*Ialto	*	*	*Isoprn	*	*
*I"Organo	*	*	*	*I"Basſo	*	*	*I"Tenor	*	*	*I"Alto	*	*	*I"Soprano	*	*
*I'org	*	*	*	*I'B	*	*	*I'T	*	*	*I'A	*	*	*I'S	*	*
*clefF4	*	*	*clefG2	*clefF4	*	*	*clefC4	*	*	*clefC3	*	*	*clefG2	*	*
*k[b-]	*	*	*k[b-]	*k[b-]	*	*	*k[b-]	*	*	*k[b-]	*	*	*k[b-]	*	*
*F:	*	*	*F:	*F:	*	*	*F:	*	*	*F:	*	*	*F:	*	*
*M4/4	*	*	*M4/4	*M4/4	*	*	*M4/4	*	*	*M4/4	*	*	*M4/4	*	*
*met(c)	*	*	*met(c)	*met(c)	*	*	*met(c)	*	*	*met(c)	*	*	*met(c)	*	*
=1	=1	=1	=1	=1	=1	=1	=1	=1	=1	=1	=1	=1	=1	=1	=1
!	!	!	!LO:TX:t=P:problem=brak nazwy instrumentu	!	!	!	!	!	!	!	!	!	!LO:SIC:o:s:=:v:all\right	!	!
!	!	!	!LO:TX:a:B:t=Largo	!	!	!	!LO:TX:a:B:t=Largo	!	!	!LO:TX:a:B:t=Largo	!	!	!LO:TX:a:B:t=Largo	!	!
4.c\ 4.F\	1 Ve-	2 Con-	4.cc\ 4.a\	4.F\	Ve-	Con-	4.c\	Ve-	Con-	4.a\	Ve-	Con-	4.cc\	Ve-	Con-
8c\ 8C\	-ni	-so-	8b-\ 8g\	8C\	-ni	-so-	8c\	-ni	-so-	8g\	-ni	-so-	8b-\	-ni	-so-
4c\ 4F\	San-	-la-	4a\ 4f\	4F\	San-	-la-	4c\	San-	-la-	4f\	San-	-la-	4a\	San-	-la-
4c\ 4F\	-cte	-tor	4a\ 4f\	4F\	-cte	-tor	4c\	-cte	-tor	4f\	-cte	-tor	4a\	-cte	-tor
=2	=2	=2	=2	=2	=2	=2	=2	=2	=2	=2	=2	=2	=2	=2	=2
4B-\ 4C\	Spi-	op-	4g\ 4e\	4C\	Spi-	op-	4B-\	Spi-	op-	4e\	Spi-	op-	4g/	Spi-	op-
4B-\ 4C\	-ri-	-ti-	4g\ 4e\	4C\	-ri-	-ti-	4B-\	-ri-	-ti-	4e\	-ri-	-ti-	4g/	-ri-	-ti-
*2\right	*	*	*	*2\right	*	*	*2\right	*	*	*2\right	*	*	*	*	*
2A\ 2F\	-tus	-me	2f/ 2c;/	2F;\	-tus	-me	2A;\	-tus	-me	2c;\	-tus	-me	2f;/	-tus	-me
=3	=3	=3	=3	=3	=3	=3	=3	=3	=3	=3	=3	=3	=3	=3	=3
4c\ 4F\	Et	Dul-	4cc\ 4a\	4F\	Et	Dul-	4c\	Et	Dul-	4a\	Et	Dul-	4cc\	Et	Dul-
4f\ 4F\	e-	-cis	4cc\ 4a\	4F\	e-	-cis	4f\	e-	-cis	4a\	e-	-cis	4cc\	e-	-cis
4f\ 4B-\	-mit-	hos-	4dd\ 4b-\	4B-\	-mit-	hos-	4f\	-mit-	hos-	4b-\	-mit-	hos-	4dd\	-mit-	hos-
4f\ 4F\	-te	-pes	(8cc\L 8a\	4F\	-te	-pes	4f\	-te	-pes	(8a\L	-te	-pes	(8cc\L	-te	-pes
.	.	.	8dd\J 8b-\)	.	.	.	.	.	.	8b-\J)	.	.	8dd\J)	.	.
=4	=4	=4	=4	=4	=4	=4	=4	=4	=4	=4	=4	=4	=4	=4	=4
4e\ 4C\	cae-	a-	4cc\ 4g\	4C\	cae-	a-	4d\	cae-	a-	4g\	ce-	a-	4cc\	ce-	a-
4c\ 4E\	-li-	-ni-	4b-\ 4g\	4E\	-li-	-ni-	4c\	-li-	-ni-	4g\	-li-	-ni-	4b-\	-li-	-ni-
*	*	*	*	*	*	*	*	*	*	*	*	*	*2\right	*	*
2c\ 2F\	-tus	-mae	2a/ 2f;/	2F;\	-tus	-mae	2c\	-tus	-me	2f;\	-tus	-me	2a;\	-tus	-me
=5	=5	=5	=5	=5	=5	=5	=5	=5	=5	=5	=5	=5	=5	=5	=5
*^	*	*	*	*	*	*	*	*	*	*	*	*	*	*	*
4c/	4C\	Lu-	Dul-	4g/ 4e/	4C/	Lu-	Dul-	4c\	Lu-	Dul-	4e\	Lu-	Dul-	4g/	Lu-	Dul-
4c/	4c\	-cis	-ce	4g/ 4e/	4c\	-cis	-ce	4c\	-cis	-ce	4e\	-cis	-ce	4g/	-cis	-ce
8c/L	4F\	Tu-	re-	8a/L 8f/	4F\	tu-	re-	(8c\L	tu-	re-	(8f\L	tu-	re-	8a\L	tu-	re-
8d/J	.	.	.	8bn/J 8g/	.	.	.	8d\J)	.	.	8g\J)	.	.	8bn\J	.	.
8e/L	8E\L	-ae	-fri-	8cc/L 8g/	(8E\L	-ae	-fri-	(8e\L	-e	-fis-	(8g\L	-e	-fri-	8cc\L	-e	-fri-
8d/J	8F\J	.	.	8dd/J 8a/	8F\J)	.	.	8d\J)	.	.	8a\J)	.	.	8dd\J	.	.
!	!	!	!	!	!LO:LB:g=original	!	!	!LO:LB:g=original	!	!	!LO:LB:g=original	!	!	!LO:LB:g=original	!	!
=6	=6	=6	=6	=6	=6	=6	=6	=6	=6	=6	=6	=6	=6	=6	=6	=6
*	*	*	*	*^	*	*	*	*	*	*	*	*	*	*	*	*
4c/	4G\	ra-	-ge-	4ee/	4g/	4G\	ra-	-ge-	4c\	ra-	-ge-	4g\	ra-	-ge-	4ee\	ra-	-ge-
8Bn/L	4G\	-di-	-ri-	8dd/L	4f\	4G\	-di-	-ri-	(8Bn\L	-di-	-ri-	4f\	-di-	-ri-	8dd\L	-di-	-ri-
8d/J	.	.	.	8bn/J	.	.	.	.	8d\J)	.	.	.	.	.	8bn\J	.	.
2c\	2C\	-um	-um	2cc;/	2e/	2C;\	-um	-um	2c;\	-um	-um	2e;\	-um	-um	2cc;\	-um	-um
*v	*v	*	*	*	*	*	*	*	*	*	*	*	*	*	*	*	*
*	*	*	*v	*v	*	*	*	*	*	*	*	*	*	*	*	*
!LO:LB:g=original	!	!	!	!	!	!	!	!	!	!	!	!	!	!	!
=7	=7	=7	=7	=7	=7	=7	=7	=7	=7	=7	=7	=7	=7	=7	=7
4.d\ 4.A\	Ve-	In	4.cc/ 4.f#X/	4.A\	Ve-	In	4.d\	Ve-	In	4.f#X\	Ve-	In	4.cc\	Ve-	In
8d\ 8G\	-ni	la-	8b-X/ 8g/	8G\	-ni	la-	8d\	-ni	la-	8g\	-ni	la-	8b-X\	-ni	la-
4d\ 4F#X\	pa-	-bo-	4a/	4F#X\	pa-	-bo-	4d\	pa-	-bo-	4a\	pa-	-bo-	4a\	pa-	-bo-
4A\ 4D\	-ter	-re	4dd/ 4f#/	4D\	-ter	-re	4A\	-ter	-re	4f#\	-ter	-re	4dd\	-ter	-ra
=8	=8	=8	=8	=8	=8	=8	=8	=8	=8	=8	=8	=8	=8	=8	=8
4.d\ 4.G\	pau-	re-	4cc\ 4a\	4.G\	pau-	re-	4.d\	pau-	re-	4a\	pau-	re-	4cc\	pau-	re-
.	.	.	8b-\L 8g\	.	.	.	.	.	.	(8g\L	-pe-	-qui-	(8b-\L	-pe-	-qui-
8d\ 8G\	-pe-	-qui-	8a\J 8f#X\	8G\	-pe-	-qui-	8d\	-pe-	-qui-	8f#X\J)	.	.	8a\J)	.	.
*	*	*	*2\right	*	*	*	*	*	*	*	*	*	*	*	*
2d\ 2G\	-rum	-es	2b-\ 2g;\	2G;\	-rum	-es	2d;\	-rum	-es	2g;\	-rum	-es	2b-;\	-rum	-es
=9	=9	=9	=9	=9	=9	=9	=9	=9	=9	=9	=9	=9	=9	=9	=9
4.c\ 4.E\	Ve-	In	4.b-/ 4.g/	4.E\	Ve-	In	4.c\	Ve-	In	4.g\	Ve-	In	4.b-\	Ve-	In
8c\ 8F\	-ni	aes-	8a/ 8fn/	8F\	-ni	es-	8c\	-ni	es-	8fn\	-ni	es-	8a\	-ni	es-
4c\ 4C\	da-	-tu	4g/ 4e/	4C/	da-	-tu	4c\	da-	-tu	4e\	da-	-tu	4g/	da-	-tu
4c\ 4E\	-tor	tem-	4cc/ 4g/	4E\	-tor	tem-	4c\	-tor	tem-	4g\	-tor	tem-	4cc\	-tor	tem-
=10	=10	=10	=10	=10	=10	=10	=10	=10	=10	=10	=10	=10	=10	=10	=10
4.c\ 4.F\	mu-	-pe-	4b-/ 4g/	4.F\	mu-	-pe-	4.c\	mu-	-pe-	4g\	mu-	-pe-	4b-\	mu-	-pe-
.	.	.	8a/L 8f/	.	.	.	.	.	.	(8f\L	-ne-	-ri-	8a/L	-ne-	-ri-
8c\ 8F\	-ne-	-ri-	8g/J 8e/	8F\	-ne-	-ri-	8c\	-ne-	-ri-	8e\J)	.	.	8g/J	.	.
2c\ 2F;\	-rum	-es	2a/ 2f;/	2F;\	-rum	-es	2c;\	-rum	-es	2f;\	-rum	-es	2a;</	-rum	-es
!	!	!	!	!LO:LB:g=original	!	!	!LO:LB:g=original	!	!	!LO:LB:g=original	!	!	!LO:LB:g=original	!	!
=11	=11	=11	=11	=11	=11	=11	=11	=11	=11	=11	=11	=11	=11	=11	=11
4.G\ 4.C\	Ve-	In	4.cc/ 4.e/	4.C\	Ve-	In	4.G/	Ve-	In	4.e\	Ve-	In	4.cc\	Ve-	In
8c\ 8E\	-ni	fle-	8b-/ 8g/	8E\	-ni	fle-	8c\	-ni	fle-	8g\	-ni	fle-	8b-\	-ni	fle-
4c\ 4F\	lu-	-tu	4a/ 4f/	4F\	lu-	-tu	4c\	lu-	-tu	4f\	lu-	-tu	4a\	lu-	-tu
4c\ 4F\	-men	so-	4a/ 4f/	4F\	-men	so-	4c\	-men	so-	4f\	-men	so-	4a\	-men	so-
=12	=12	=12	=12	=12	=12	=12	=12	=12	=12	=12	=12	=12	=12	=12	=12
4B-\ 4C\	cor-	-la-	4g/ 4e/	4C\	cor-	-la-	4B-\	cor-	-la-	4e\	cor-	-la-	4g/	cor-	-la-
4B-\ 4C#X\	-di-	-ti-	4g/ 4e/	4C#X\	-di-	-ti-	4B-\	-di-	-ti-	4e\	-di-	-ti-	4g/	-di-	-ti-
2A\ 2D;\	-um	-um	2f/ 2d;/	2D;\	-um	-um	2A;\	-um	-um	2d;\	-um	-um	2f;/	-um	-um
!LO:SIC:t:=:v:łamanie strony chociaż poniżej jeszcze kilka linijek innego utworu.	!	!	!LO:TX:rj:b:t=V&colon;S	!	!	!	!	!	!	!	!	!	!	!	!
!LO:LB:g=original	!	!	!	!	!	!	!	!	!	!	!	!	!	!	!
=13	=13	=13	=13	=13	=13	=13	=13	=13	=13	=13	=13	=13	=13	=13	=13
*^	*	*	*	*	*	*	*	*	*	*	*	*	*	*	*
4.c\	4.A\	Ve-	In	4.ff/ 4.f/	4.A\	Ve-	In	4.c\	Ve-	In	4.f\	Ve-	In	4.ff\	Ve-	In
8A/	8A\	-ni	fle-	8cc/ 8f/	8A\	-ni	fle-	8A\	-ni	fle-	8f\	-ni	fle-	8cc\	-ni	fle-
4B-/	4B-\	lu-	-tu	4dd/ 4f/	4B-\	lu-	-tu	4B-\	lu-	-tu	4f\	lu-	-tu	4dd\	lu-	-tu
8c\L 8A\L	8ryy	-men	so-	8cc/L 8f/	(8A\L	-men	so-	(8c\L	-men	so-	(8f\L	-men	so-	8cc\L	-men	so-
8d\J 8B-\J	8ryy	.	.	8b-/J 8g/	8B-\J)	.	.	8d\J)	.	.	8g\J)	.	.	8b-\J	.	.
*v	*v	*	*	*	*	*	*	*	*	*	*	*	*	*	*	*
=14	=14	=14	=14	=14	=14	=14	=14	=14	=14	=14	=14	=14	=14	=14	=14
4c\	cor-	-la-	4a/ 4f/	4c\	cor-	-la-	4c\	cor-	-la-	4f\	cor-	-la-	4a\	cor-	-la-
4B-\ 4C\	-di-	-ti-	4g/ 4e/	4C/	-di-	-ti-	4B-\	-di-	-ti-	4e\	-di-	-ti-	4g\	-di-	-ti-
2A\ 2F;\	-um	-um	2f/ 2c;/	2F;\	-um	-um	2A\	-um	-um	2c;\	-um	-um	2f;/	-um	-um
==	==	==	==	==	==	==	==	==	==	==	==	==	==	==	==
*-	*-	*-	*-	*-	*-	*-	*-	*-	*-	*-	*-	*-	*-	*-	*-
!!!system-decoration: [(s1,s2,s3,s4)]{(s5,s6)}
!!!RDF**kern: > = above
!!!RDF**kern: < = below
!!!EED: Leszek Kubiak
!!!EEV: 2021-01-02
!!!ENC: Tomasz Grochalski
!!!END: 2020-12-31
